X: 1650
T: Annie's Carafe
R: jig
M: 6/8
K: Dmajor
|:agf g2e|fed ecA|d3 fed|ecA efg|
a2f g2e|fed ecA|d3 faf|1 gec dfg:|2 gec d3||
|:cde gcd|e2d cBA|dfa afa|geg fed|
cde gcd|e2d cBA|a3 gec|Adc d3:|
|:aff gee|fdd ecA|d3 fed|ecA efg|
a2f gee|fdd ecA|d3 faf|gec dfg|
faa gaa|faa ecA|d3 fed|ecA efg|
a2f g2e|fed ecA|d3 faf|gec d3||
|:cee gdd|edd cAA|dfa afa|geg fed|
cee gea|e2d cBA|a3 gec|Adc d3|
cde gcd|e2d cBA|dfa afa|geg fed|
cde gcd|e2d cBA|a3 bag|fge d3||

